z_dist/img/icons/crypto/wrapped-bitcoin-WBTC.svg

<svg width="64" height="64" viewBox="0 0 64 64" fill="none" xmlns="http://www.w3.org/2000/svg">
<rect y="0.000488281" width="64" height="64" rx="4" fill="white"/>
<circle cx="32" cy="32.0005" r="24" fill="white"/>
<path d="M46.9263 18.0314L45.6 19.3565C52.1598 26.5237 52.1598 37.5082 45.6 44.6754L46.9263 46.0005C54.2245 38.0913 54.2245 25.9097 46.9263 18.0005V18.0314Z" fill="#5A5564"/>
<path d="M19.356 18.4006C26.5233 11.8407 37.5077 11.8407 44.6749 18.4006L46 17.0743C38.0908 9.77603 25.9092 9.77603 18 17.0743L19.356 18.4006Z" fill="#5A5564"/>
<path d="M18.4 44.6312C11.8482 37.4659 11.8482 26.4909 18.4 19.3256L17.0737 18.0005C9.77542 25.9097 9.77542 38.0913 17.0737 46.0005L18.4 44.6312Z" fill="#5A5564"/>
<path d="M44.644 45.6006C37.4767 52.1604 26.4923 52.1604 19.3251 45.6006L18 46.9269C25.9092 54.2251 38.0908 54.2251 46 46.9269L44.644 45.6006Z" fill="#5A5564"/>
<path fill-rule="evenodd" clip-rule="evenodd" d="M40.2436 27.751C39.9827 24.9974 37.6349 24.0737 34.6653 23.7921V20.0005H32.3696V23.7218H30.5348V20.0005H28.2565V23.8185H23.6V26.3038C23.6 26.3038 25.2956 26.273 25.2696 26.3038C25.905 26.2331 26.4817 26.6842 26.5739 27.3243V37.7755C26.5607 37.9949 26.4603 38.1996 26.2956 38.343C26.134 38.4891 25.9205 38.5622 25.7043 38.5453C25.7348 38.5717 24.0348 38.5453 24.0348 38.5453L23.6 41.3209H28.2131V45.2005H30.5087V41.378H32.3435V45.1829H34.6435V41.3473C38.5218 41.1097 41.2262 40.142 41.5653 36.4691C41.8393 33.5132 40.4653 32.1936 38.2697 31.6614C39.6045 30.9972 40.4305 29.7655 40.2436 27.751ZM37.0262 36.0117C37.0262 38.6607 32.9076 38.5998 31.028 38.572C30.8602 38.5695 30.7102 38.5673 30.5826 38.5673V33.4472C30.742 33.4477 30.9363 33.4433 31.1567 33.4384H31.1568C33.0888 33.3952 37.0262 33.3071 37.0262 36.0117ZM30.9779 31.121C32.5528 31.1493 35.9609 31.2105 35.9609 28.7978C35.9609 26.3241 32.659 26.411 31.0534 26.4533C30.8746 26.458 30.7168 26.4621 30.587 26.4621V31.1159C30.6982 31.1159 30.83 31.1183 30.9779 31.121Z" fill="#F09242"/>
<path fill-rule="evenodd" clip-rule="evenodd" d="M8 31.999C7.99919 45.2527 18.7419 55.9981 31.9956 56.0005C38.3623 56.0017 44.4686 53.473 48.9706 48.9711C53.4725 44.4691 56.0012 38.3628 56 31.9961C55.9976 18.7424 45.2522 7.99968 31.9985 8.00049C18.7448 8.0013 8.00081 18.7453 8 31.999ZM9.89786 31.9961C9.89301 19.7856 19.7851 9.88169 31.9956 9.87199C37.8655 9.86732 43.4965 12.1965 47.648 16.3463C51.7995 20.4961 54.1308 26.1262 54.1285 31.9961C54.1236 44.2066 44.2237 54.1026 32.0132 54.1026C19.8027 54.1026 9.90271 44.2066 9.89786 31.9961Z" fill="#282138"/>
</svg>

<svg width="64" height="64" fill="none" xmlns="http://www.w3.org/2000/svg"><rect width="64" height="64" rx="4" fill="#fff"/><circle cx="32" cy="32.001" r="24" fill="#fff"/><path d="M46.926 18.031L45.6 19.357c6.56 7.167 6.56 18.151 0 25.318l1.326 1.326c7.298-7.91 7.298-20.091 0-28v.03zm-27.57.369c7.167-6.56 18.152-6.56 25.319 0L46 17.075c-7.91-7.298-20.09-7.298-28 0l1.356 1.327zM18.4 44.631c-6.552-7.165-6.552-18.14 0-25.305L17.074 18c-7.299 7.91-7.299 20.091 0 28l1.326-1.369zm26.244.969c-7.167 6.56-18.152 6.56-25.319 0L18 46.928c7.91 7.298 20.09 7.298 28 0L44.644 45.6z" fill="#5A5564"/><path fill-rule="evenodd" clip-rule="evenodd" d="M40.244 27.751c-.261-2.754-2.61-3.677-5.579-3.959V20H32.37v3.722h-1.835V20h-2.279v3.819H23.6v2.485s1.696-.031 1.67 0a1.19 1.19 0 011.304 1.02v10.451a.817.817 0 01-.278.568.79.79 0 01-.592.202c.03.027-1.67 0-1.67 0l-.434 2.776h4.613v3.88h2.296v-3.823h1.834v3.805h2.3v-3.836c3.879-.237 6.583-1.205 6.922-4.878.274-2.956-1.1-4.275-3.295-4.808 1.334-.664 2.16-1.896 1.974-3.91zm-3.218 8.26c0 2.65-4.118 2.589-5.998 2.561a31.716 31.716 0 00-.445-.005v-5.12c.159 0 .353-.004.574-.009 1.932-.043 5.87-.13 5.87 2.574zm-6.048-4.89c1.575.028 4.983.09 4.983-2.323 0-2.474-3.302-2.387-4.908-2.345-.178.005-.336.01-.466.01v4.653c.111 0 .243.002.39.005z" fill="#F09242"/><path fill-rule="evenodd" clip-rule="evenodd" d="M8 31.999c0 13.254 10.742 24 23.996 24.002A24 24 0 0056 31.996C55.998 18.742 45.252 8 31.998 8 18.745 8.001 8.002 18.745 8 32zm1.898-.003c-.005-12.21 9.887-22.114 22.098-22.124a22.116 22.116 0 0122.133 22.124c-.005 12.21-9.905 22.107-22.116 22.107-12.21 0-22.11-9.896-22.115-22.107z" fill="#282138"/></svg>
